X:12
T:Morceau Louis (simplifi)
R:
O:France
Z:<anamnese@laposte.net>
M:C
L:1/8
Q:1/4=130
K:C
ee2f ecA2 | A>B cA BcBE | ee2f ecA2 | A>B cA B2B2 ::
E^G2 A B2 c2 | d>c Bd cBA2 | E^G2 A B2 c2 | d>c BA cB^G2 |
E^G2 A B2 c2 | d>c Bd cBA2 | E^G2 A B2 c2 | d>c BA e2e2 ||
